assets/icons/24px/stroke/hot-brew-24px.svg

<svg width="24" height="24" viewBox="0 0 24 24" fill="none" xmlns="http://www.w3.org/2000/svg">
<path fill-rule="evenodd" clip-rule="evenodd" d="M4.34183 9.99979C4.37144 9.9999 4.40039 10 4.42856 10H14.5714C14.5996 10 14.6285 9.9999 14.6581 9.99979C14.96 9.99861 15.3316 9.99716 15.6605 10.1122C16.235 10.3133 16.6867 10.765 16.8878 11.3395C17.0028 11.6684 17.0014 12.04 17.0002 12.3419C17.0001 12.3715 17 12.4004 17 12.4286L17 14.5437C17 14.9664 17 15.2287 16.985 15.4578C16.7552 18.9631 13.9631 21.7553 10.4578 21.985C10.2287 22 9.96629 22 9.54363 22H9.45634C9.03368 22 8.77128 22 8.54216 21.985C5.03687 21.7553 2.24472 18.9631 2.01497 15.4578C1.99996 15.2287 1.99997 14.9664 1.99998 14.5437L1.99999 12.4286C1.99999 12.4004 1.99987 12.3715 1.99976 12.3419C1.99858 12.04 1.99713 11.6684 2.11222 11.3395C2.31324 10.765 2.76493 10.3133 3.33943 10.1122C3.66833 9.99716 4.03994 9.99861 4.34183 9.99979ZM4.00605 12.0061C4.0058 12.0098 4.00554 12.0138 4.00529 12.0181C4.00038 12.1019 3.99998 12.2174 3.99998 12.4286V14.5C3.99998 14.9801 4.00052 15.1719 4.01069 15.327C4.1748 17.8308 6.16919 19.8252 8.67297 19.9893C8.82807 19.9995 9.01986 20 9.49999 20C9.98011 20 10.1719 19.9995 10.327 19.9893C12.8308 19.8252 14.8252 17.8308 14.9893 15.327C14.9994 15.1719 15 14.9801 15 14.5V12.4286C15 12.2174 14.9996 12.1019 14.9947 12.0181C14.9944 12.0138 14.9942 12.0098 14.9939 12.0061C14.9902 12.0058 14.9862 12.0056 14.9819 12.0053C14.8981 12.0004 14.7826 12 14.5714 12H4.42856C4.21737 12 4.10189 12.0004 4.01811 12.0053C4.01381 12.0056 4.00979 12.0058 4.00605 12.0061Z" fill="white"/>
<path fill-rule="evenodd" clip-rule="evenodd" d="M17.2222 12H12V10H17.2222C19.34 10 21 11.7304 21 13.9077C21 16.0021 19.4168 18 17.2222 18H16.1111V16H17.2222C18.0959 16 19 15.1271 19 13.9077C19 12.7713 18.1727 12 17.2222 12Z" fill="white"/>
<path fill-rule="evenodd" clip-rule="evenodd" d="M6.63471 2.10558C7.12869 2.35257 7.32892 2.95324 7.08193 3.44722L6.97598 3.65911C6.84062 3.92984 6.77236 4.06887 6.73284 4.17229C6.73219 4.17399 6.73156 4.17565 6.73095 4.17726C6.73176 4.17879 6.73259 4.18035 6.73344 4.18196C6.78549 4.27968 6.87046 4.40917 7.03836 4.66102L7.10196 4.75642C7.11988 4.78331 7.1385 4.81092 7.1576 4.83926C7.36454 5.14625 7.62861 5.538 7.69146 6.0073C7.7543 6.47659 7.60261 6.92402 7.48374 7.27465C7.47277 7.30701 7.46208 7.33855 7.45186 7.3692L7.13618 8.31623C6.96153 8.84018 6.39521 9.12334 5.87127 8.94869C5.34733 8.77404 5.06417 8.20772 5.23882 7.68378L5.55449 6.73675C5.6358 6.49282 5.676 6.36947 5.6977 6.27884C5.69808 6.27723 5.69845 6.27567 5.69881 6.27415C5.69807 6.27278 5.6973 6.27137 5.6965 6.26992C5.65173 6.18819 5.58048 6.07976 5.43786 5.86582L5.37426 5.77042C5.3677 5.76059 5.36114 5.75075 5.35457 5.7409C5.2146 5.53103 5.07251 5.31797 4.9682 5.12213C4.84861 4.89759 4.74066 4.62917 4.72032 4.30244C4.69998 3.9757 4.7738 3.69596 4.86461 3.45833C4.94382 3.25106 5.0584 3.02202 5.17125 2.79642C5.17655 2.78583 5.18184 2.77525 5.18713 2.76468L5.29307 2.55279C5.54006 2.05881 6.14073 1.85859 6.63471 2.10558Z" fill="white"/>
<path fill-rule="evenodd" clip-rule="evenodd" d="M14.7597 2.10558C15.2537 2.35257 15.4539 2.95324 15.2069 3.44722L15.101 3.65911C14.9656 3.92984 14.8974 4.06887 14.8578 4.17229C14.8572 4.17399 14.8566 4.17565 14.856 4.17726C14.8568 4.17879 14.8576 4.18035 14.8584 4.18196C14.9105 4.27968 14.9955 4.40917 15.1634 4.66102L15.227 4.75642C15.2449 4.78331 15.2635 4.81092 15.2826 4.83926C15.4895 5.14625 15.7536 5.538 15.8165 6.0073C15.8793 6.47659 15.7276 6.92402 15.6087 7.27465C15.5978 7.30701 15.5871 7.33855 15.5769 7.3692L15.2612 8.31623C15.0865 8.84018 14.5202 9.12334 13.9963 8.94869C13.4723 8.77404 13.1892 8.20772 13.3638 7.68378L13.6795 6.73675C13.7608 6.49282 13.801 6.36947 13.8227 6.27884C13.8231 6.27723 13.8235 6.27567 13.8238 6.27415C13.8231 6.27278 13.8223 6.27137 13.8215 6.26992C13.7767 6.18819 13.7055 6.07976 13.5629 5.86582L13.4993 5.77042C13.4927 5.76059 13.4861 5.75075 13.4796 5.7409C13.3396 5.53103 13.1975 5.31797 13.0932 5.12213C12.9736 4.89759 12.8657 4.62917 12.8453 4.30244C12.825 3.9757 12.8988 3.69596 12.9896 3.45833C13.0688 3.25106 13.1834 3.02202 13.2963 2.79642C13.3016 2.78583 13.3068 2.77525 13.3121 2.76468L13.4181 2.55279C13.6651 2.05881 14.2657 1.85859 14.7597 2.10558Z" fill="white"/>
</svg>

<svg width="24" height="24" fill="none" xmlns="http://www.w3.org/2000/svg"><path fill-rule="evenodd" clip-rule="evenodd" d="M4.342 10H14.658c.302-.001.674-.003 1.003.112a2 2 0 0 1 1.227 1.227c.115.33.113.701.112 1.003V14.544c0 .422 0 .685-.015.914a7 7 0 0 1-6.527 6.527c-.23.015-.492.015-.914.015h-.088c-.422 0-.685 0-.914-.015a7 7 0 0 1-6.527-6.527C2 15.228 2 14.966 2 14.544v-2.115-.087c-.001-.302-.003-.674.112-1.003a2 2 0 0 1 1.227-1.227c.33-.115.7-.113 1.003-.112zm-.336 2.006v.012c-.006.084-.006.2-.006.41V14.5c0 .48 0 .672.01.827a5 5 0 0 0 4.663 4.662c.155.01.347.011.827.011s.672 0 .827-.01a5 5 0 0 0 4.662-4.663c.01-.155.011-.347.011-.827v-2.071c0-.212 0-.327-.005-.41l-.001-.013h-.012a8.121 8.121 0 0 0-.41-.006H4.428c-.212 0-.327 0-.41.005l-.013.001z" fill="#fff"/><path fill-rule="evenodd" clip-rule="evenodd" d="M17.222 12H12v-2h5.222C19.34 10 21 11.73 21 13.908 21 16.002 19.417 18 17.222 18h-1.11v-2h1.11c.874 0 1.778-.873 1.778-2.092C19 12.77 18.173 12 17.222 12zM6.635 2.106a1 1 0 0 1 .447 1.341l-.106.212a6.719 6.719 0 0 0-.245.518l.002.005c.052.098.137.227.305.479l.064.095.056.083c.207.307.47.699.533 1.168.063.47-.088.917-.207 1.268a20.19 20.19 0 0 0-.032.094l-.316.947a1 1 0 1 1-1.897-.632l.315-.947a6.44 6.44 0 0 0 .144-.458v-.005a6.435 6.435 0 0 0-.261-.408l-.063-.096-.02-.03a7.77 7.77 0 0 1-.386-.618 1.978 1.978 0 0 1-.248-.82c-.02-.326.054-.606.145-.844.079-.207.193-.436.306-.662l.016-.031.106-.212a1 1 0 0 1 1.342-.447zm8.125 0a1 1 0 0 1 .447 1.341l-.106.212a6.744 6.744 0 0 0-.245.518l.002.005c.053.098.137.227.305.479l.064.095.056.083c.207.307.47.699.534 1.168.062.47-.09.917-.208 1.268l-.032.094-.316.947a1 1 0 0 1-1.897-.632l.316-.947c.08-.244.121-.368.143-.458v-.005c0-.001 0-.003-.002-.004a6.452 6.452 0 0 0-.258-.404l-.064-.096a1.98 1.98 0 0 1-.654-1.468 1.98 1.98 0 0 1 .145-.844c.079-.207.193-.436.306-.662l.016-.031.106-.212a1 1 0 0 1 1.342-.447z" fill="#fff"/></svg>
